X:268
T: Ma ju ju
N: C0422
O: China, Neimeng, Hetao, innere)
S: IV, 369, 2)]
N: Han- Melodie, die mongolisch beeinflusst wurde.
R: Shange, Pashan diao. Nann siqing]
M: 2/4
L: 1/16
K: F
c4d4 | g4d2c2 | A8- | A4GA3
A2F4D2 | D4A2F2 | D8
c4d4 | g4d2c2 | A8- | A4GA3
A2F4D2 | D4c2F2 | G8

